X:205
T:Oscar and Lucinda's Wedding Jig
R:jig
M:6/8
L:1/8
K:D
d3 d3 | dcB ABc | dcB AGF | DEF E2D
e3 ede |  fed eag | fed dAB | def e2d ::
fed edA | fed edA | gfe feB | gfe feB |
fed edA | fed eag | fed dAB | def e2d ::
dfa dfa | dfa afd | egb egb | egb bge |
dfa dfa | dfa a2g | fed dAB | def e2d :|
